!!!OTL: SCHOEN ISTS UNTER FREIEM HIMMEL
!!!ARE: Europa, Mitteleuropa, Deutschland
!!!SCT: F0586
!!!YEM: Copyright 1995, estate of Helmut Schaffrath.
**kern
*ICvox
*Ivox
*M4/4
*k[]
*C:
{8.G
16G
=1
4.c
8G
4.A
8F
=2
8.G
16E
4C
4r}
{8.G
16G
=3
4.c
8G
4.A
8F
=4
8.G
16E
4C
4r}
{8.B
16c
=5
4.d
8d
4.e
8e
=6
2d
4r}
{8.B
16c
=7
4.d
8d
4.e
8e
=8
2d
4r}
{8.G
16G
=9
4c
4G
4E
4C
=10
4F
4D
4r}
{8.B
16c
=11
4.d
8B
4.G
8F
=12
8.F
16E
4E
4r}
{8.E
16E
=13
4.F
8F
4.G
8G
=14
2A
4r}
{8.E
16E
=15
4.F
8F
4.G
8B
=16
8c}
{16c
16c
8c
8c
8d
16d
16d
8d
8d
=17
8e}
{16e
16e
8e
8e
8d
16d
16d
8d
8d
=18
8c
8e
8c
8e
4c}
==
!!!AGN: Soldaten -, Kriegs - Lied
!!!ONB: ESAC (Essen Associative Code) Database: FINK
!!!AMT: simple quadruple
!!!AIN: vox
!!!EED: Helmut Schaffrath
!!!EEV: 1.0
*-
